X:02
T:Haul Away the Hawser. MBe.02
S:Matthew Betham MS, Towcett Cumbria, 1815
O:England;Cumbria;Towcett
Z:VMP – Hugh Taylor, 2012
T:Torryburn Lasses,aka. MBe.02
T:Seymore’s Reel,aka. MBe.02
T:Ladies Wattle,aka. MBe.02
T:Tadie’s Wattle,aka. MBe.02
T:Comely Jane Downing,aka MBe.02
M:C
L:1/8
Q:1/2=100
R:.Reel
N:Quite different to the tune of the same name in Vickers MS
N:Someone in a different hand has been copying out the name of the previous tune – The Russian Dance – as if
N:practicing writing.
N:NB-The A in the final bar of the B music may be dotted, but I think it’s a blot.
K:G
D|G2 BG BddB|c2 ec eg g2|G2 BG Bddg|edcB A2 G:|
g|g2 bg afed|edef gdBG|g2 bg afed|edef g2 a2|
bagf gfed|edef gdBG|cBcd efge|dBgB “^NB”A2 G|]

